X:1
T:Drummer. Ru1.060, The
L:1/8
Q:1/2=80
M:2/2
I:linebreak $
K:Gmin
V:1 treble 
V:1
 B/A/ | GABG D/D/D DE | F2 FG A>BcA | GABG D/D/D De | dcBA G/G/G"^*"G |: F |$ B/B/B Bd c/c/c ce | %7
 B/B/B Bd cAFA | B/B/B Bd c/c/c ce | dcBA G/G/G G2 |] %10
